actions/symbolic/sidebar-places-symbolic.svg

<?xml version="1.0" encoding="UTF-8" standalone="no"?>
<svg
   xmlns:dc="http://purl.org/dc/elements/1.1/"
   xmlns:cc="http://creativecommons.org/ns#"
   xmlns:rdf="http://www.w3.org/1999/02/22-rdf-syntax-ns#"
   xmlns:svg="http://www.w3.org/2000/svg"
   xmlns="http://www.w3.org/2000/svg"
   xmlns:sodipodi="http://sodipodi.sourceforge.net/DTD/sodipodi-0.dtd"
   xmlns:inkscape="http://www.inkscape.org/namespaces/inkscape"
   height="16"
   width="16"
   version="1.1"
   id="svg6"
   sodipodi:docname="sidebar-places-symbolic.svg"
   inkscape:version="0.92.2pre0 (973e216, 2017-07-25)">
  <metadata
     id="metadata12">
    <rdf:RDF>
      <cc:Work
         rdf:about="">
        <dc:format>image/svg+xml</dc:format>
        <dc:type
           rdf:resource="http://purl.org/dc/dcmitype/StillImage" />
      </cc:Work>
    </rdf:RDF>
  </metadata>
  <defs
     id="defs10" />
  <sodipodi:namedview
     pagecolor="#ffffff"
     bordercolor="#666666"
     borderopacity="1"
     objecttolerance="10"
     gridtolerance="10"
     guidetolerance="10"
     inkscape:pageopacity="0"
     inkscape:pageshadow="2"
     inkscape:window-width="1920"
     inkscape:window-height="1001"
     id="namedview8"
     showgrid="false"
     inkscape:zoom="14.75"
     inkscape:cx="8"
     inkscape:cy="8"
     inkscape:window-x="0"
     inkscape:window-y="0"
     inkscape:window-maximized="1"
     inkscape:current-layer="svg6" />
  <g
     color="#000"
     transform="translate(-552 -52)"
     id="g4"
     style="fill:#808080;fill-opacity:1">
    <path
       d="M555.994 53c-1.258.015-2.179-.029-2.932.387a1.878 1.878 0 0 0-.84.996c-.164.438-.222.96-.222 1.617v8c0 .658.058 1.179.223 1.617.164.439.463.79.84.998.752.416 1.673.37 2.931.385h8.012c1.258-.015 2.179.03 2.932-.385.376-.207.675-.56.84-.998.164-.438.222-.96.222-1.617v-6c0-.658-.058-1.179-.223-1.617-.02-.055-.048-.104-.074-.154l-.027-.057a1.838 1.838 0 0 0-.738-.787c-.753-.416-1.674-.37-2.932-.385H560.967l-2.022-2h-2.949zm.012 1h2.53l1.765 1.746L559.033 57H555.994c-1.258.015-2.179-.03-2.932.385-.022.012-.04.03-.062.043V56c0-.592.062-1.006.16-1.266s.203-.371.387-.472c.366-.203 1.195-.247 2.459-.262zm5.459 2h2.527c1.264.015 2.092.06 2.46.262.183.1.288.212.386.472.098.26.162.674.162 1.266v6c0 .592-.063 1.006-.16 1.266-.098.26-.203.371-.387.472-.366.202-1.193.247-2.453.262h-8c-1.26-.015-2.087-.06-2.453-.262-.184-.1-.29-.212-.387-.472-.097-.26-.16-.674-.16-1.266v-4c0-.592.064-1.006.162-1.266s.203-.371.387-.472c.367-.203 1.195-.247 2.459-.262h3.435z"
       fill="#808080"
       font-family="sans-serif"
       font-weight="400"
       overflow="visible"
       style="line-height:normal;font-variant-ligatures:none;font-variant-position:normal;font-variant-caps:normal;font-variant-numeric:normal;font-variant-alternates:normal;font-feature-settings:normal;text-indent:0;text-align:start;text-decoration-line:none;text-decoration-style:solid;text-decoration-color:#000;text-transform:none;shape-padding:0;isolation:auto;mix-blend-mode:normal;marker:none;fill:#808080;fill-opacity:1"
       white-space="normal"
       id="path2" />
  </g>
</svg>

<svg xmlns="http://www.w3.org/2000/svg" width="16" height="16" version="1.1">
 <g style="fill:#808080" transform="translate(-552,-52)">
  <path style="fill:#808080" d="M 555.99,53 C 554.74,53.015 553.82,52.971 553.06,53.387 A 1.878,1.878 0 0 0 552.22,54.383 C 552.06,54.821 552,55.343 552,56 V 64 C 552,64.658 552.06,65.179 552.22,65.617 552.39,66.056 552.69,66.407 553.06,66.615 553.81,67.031 554.74,66.985 555.99,67 H 564.01 C 565.26,66.985 566.19,67.03 566.94,66.615 567.31,66.408 567.61,66.055 567.78,65.617 567.94,65.179 568,64.657 568,64 V 58 C 568,57.342 567.94,56.821 567.78,56.383 567.76,56.328 567.73,56.279 567.7,56.229 L 567.68,56.172 A 1.838,1.838 0 0 0 566.94,55.385 C 566.19,54.969 565.26,55.015 564.01,55 H 560.97 L 558.94,53 H 556 Z M 556.01,54 H 558.54 L 560.3,55.746 559.03,57 H 555.99 C 554.74,57.015 553.82,56.97 553.06,57.385 553.04,57.397 553.02,57.415 553,57.428 V 56 C 553,55.408 553.06,54.994 553.16,54.734 553.26,54.474 553.36,54.363 553.55,54.262 553.91,54.059 554.74,54.015 556.01,54 Z M 561.46,56 H 563.99 C 565.26,56.015 566.08,56.06 566.45,56.262 566.63,56.362 566.74,56.474 566.84,56.734 566.94,56.994 567,57.408 567,58 V 64 C 567,64.592 566.94,65.006 566.84,65.266 566.74,65.526 566.64,65.637 566.45,65.738 566.09,65.94 565.26,65.985 564,66 H 556 C 554.74,65.985 553.91,65.94 553.55,65.738 553.36,65.638 553.26,65.526 553.16,65.266 553.06,65.006 553,64.592 553,64 V 60 C 553,59.408 553.06,58.994 553.16,58.734 553.26,58.474 553.37,58.363 553.55,58.262 553.92,58.059 554.74,58.015 556.01,58 H 559.44 Z"/>
 </g>
</svg>
